X:1
T:Building, Daily Building
T:Isaac Hickman Meredith
T:Building, Daily Building
T:Public Domain
T:Public Domain
T:Public Domain
T:Public Domain
C:Isaac Hickman Meredith
Z:Public Domain
%%score ( 1 2 ) ( 3 4 )
L:1/8
M:4/4
K:Eb
V:1 treble 
V:2 treble 
V:3 bass 
V:4 bass 
V:1
 z8 | z8 | G4- G>B F>G | E4 B,4 | C4- C>E A>C | B,4- B,2 z2 | B,4- B,>B, C>D | E4 G4 | %8
w: ||1.~Build- * ing, dai- ly|build- ing,|while * the mo- ments|fly, *|We * are ev- er|build- ing|
w: ||2.~Choos- * ing, as we|la- bor,|what * we wish to|take, *|Oh * let us be|care- ful|
w: ||3.~Hay * or wood or|stub- ble,|we * must ne- ver|use, *|Of- * fers of the|temp- ter|
w: ||4.~May * the Lord ap-|prove us!|’Tis * our ear- nest|prayer. *|Oh, * to have our|build- ing|
 F4- F>C D>E | F4-{_G} F2 | G4- G>B F>G | E4 B,4 | C4- C>E A>C | B,4- B,2 z2 | B4- B>c B>E | %15
w: life * work for on|high! *|ac- * ter we’re build-|ing, thoughts|and * ac- tions free|Make *|for * us a build-|
w: for * the Mas- ter’s|sake! *|will * help our la-|bor, He|will * strength be- stow;|Let *|us * choose for Je-|
w: we * must e’er re-|fuse. *|ful * thoughts and ac-|tions will|not * stand the test;|Seek- *|ing * God’s ap- prov-|
w: tall, * and strong and|fair! *|to * live for Je-|sus! Tru-|ly * ev- ery hour,|Build- *|ing, * pray- ing, trust-|
 E4 A4 | G4- G>F C>D | (z3/2 G,/ A,>A, [G,E]2) ||"^Refrain" F>E | %19
w: ing for|e- * ter- ni- ty.|||
w: sus all|we * use be- low.||are *|
w: al, we|must * use the best.|||
w: ing in|His * might- y power!|||
 [A,D]>[A,DA] [A,DA]>[A,DA] [A,DA]2 | G>F | [G,B,E]>[B,EGB] [B,EGB]>[B,EGB] [B,EGB]2 | B,>E | %23
w: ||||
w: build- ing day by day,|while the|ments pass a- way, We|are build-|
w: ||||
w: ||||
 [A,B,D]2 [A,DA]4 C>D | [G,B,]2 [B,EG]4 | F>E | [A,D]>[A,DA] [A,DA]>[A,DA] [A,DA]2 | G>F | %28
w: |||||
w: ing, ev- er build-|We are|build- ing|by day, while the mo-|ments pass|
w: |||||
w: |||||
 [G,B,E]>[B,EGB] [B,EGB]>[B,EGB] [B,EGB]2 | B,>B, | [A,C]>[A,C] [A,CA]>[A,CG] [A,B,DF]2 [A,B,DG]2 | %31
w: |||
w: way, We are build- ing|for e-|ter- ni- ty. * * *|
w: |||
w: |||
 [G,B,E]6 z2 :| [G,B,E]8 |] %33
w: ||
w: ||
w: ||
w: ||
V:2
 x8 | x8 | x8 | x8 | x8 | x8 | x8 | x8 | x8 | x6 | x8 | x8 | x8 | x8 | x8 | x8 | x8 | E4- x2 || %18
w: ||||||||||||||||||
w: |||||||||||||||||We|
 x2 | x6 | [A,D]2 | x6 | x2 | x6 A,2 | x6 | B,2 | x6 | [A,D]2 | x6 | x2 | x8 | x8 :| x8 |] %33
w: |||||||||||||||
w: ||mo-|||ing;||day||a-||||||
V:3
 (E,,>[B,,E,G,] [B,,E,G,]>[B,,E,G,] [B,,E,G,]2 [B,,E,G,]2) | %1
 (E,,>[B,,E,G,] [B,,E,G,]>[B,,E,G,] [B,,E,G,]2 [B,,E,G,]2) | %2
 (E,,>[B,,E,G,] [B,,E,G,]>[B,,E,G,] [B,,E,G,]2) [B,,D,A,]2 | %3
 (E,,>[B,,E,G,] [B,,E,G,]>[B,,E,G,]) ([B,,E,G,]2 [B,,E,G,]2) | %4
 (A,,,>[C,E,A,] [C,E,A,]>[C,E,A,] [C,E,A,]2) [C,E,A,]2 | %5
 (E,,>[B,,E,G,] [B,,E,G,]>[B,,E,G,] [B,,E,G,]2 [B,,E,G,]2) | %6
 (B,,,>[B,,D,A,] [B,,D,A,]>[B,,D,A,] [B,,D,A,]2) [B,,D,A,]2 | %7
 (E,,>[B,,E,G,] [B,,E,G,]>[B,,E,G,]) ([B,,E,G,]2 [B,,E,G,]2) | %8
 (F,,>[E,F,=A,] [E,F,A,]>[E,F,A,] [E,F,A,]2) [E,F,A,]2 | %9
 (B,,,>[B,,D,A,] [B,,D,A,]>[B,,D,A,] [B,,D,A,]2) z2 | %10
 (E,,>[B,,E,G,] [B,,E,G,]>[B,,E,G,] [B,,E,G,]2) [B,,D,A,]2 | %11
 (E,,>[B,,E,G,] [B,,E,G,]>[B,,E,G,]) ([B,,E,G,]2 [B,,E,G,]2) | %12
 (A,,,>[C,E,A,] [C,E,A,]>[C,E,A,] [C,E,A,]2) [C,E,A,]2 | %13
 (E,,>[B,,E,G,] [B,,E,G,]>[B,,E,G,] [B,,E,G,]2 [B,,E,G,]2) | %14
 (E,,>[B,,D,G,] [B,,D,G,]>[B,,D,G,] [B,,D,G,]2) [B,,D,G,]2 | %15
 (A,,,>[C,E,A,] [C,E,A,]>[C,E,A,]) [C,E,A,]2 [=B,,E,A,]2 | %16
 (B,,,>[B,,E,G,] [B,,E,G,]>[B,,E,G,] [B,,D,A,]2) [B,,D,A,]2 | (z3/2 D,/ C,>C, [E,,B,,]2) || z2 | %19
 F,,2 [B,,D,]2 B,,,2 | [B,,D,]2 | E,,2 [B,,E,G,]2 [B,,E,G,]2 | z2 | F,,2 [B,,D,]2 B,,,2 [B,,D,]2 | %24
 E,,2 [B,,E,G,]2 G,,2 | [B,,E,G,]2 | F,,2 [B,,D,]2 B,,,2 | [B,,D,]2 | E,,2 [B,,E,G,]2 [B,,E,G,]2 | %29
 [G,,E,]>[G,,E,] | [A,,E,]>[A,,E,] [F,,F,]>[F,,F,] [B,,D,]2 [B,,D,]2 | [E,,B,,E,]6 z2 :| %32
 [E,,B,,E,]8 |] %33
V:4
 x8 | x8 | x8 | x8 | x8 | x8 | x8 | x8 | x8 | x8 | x8 | x8 | x8 | x8 | x8 | x8 | x8 | E,,4- x2 || %18
 x2 | x6 | x2 | x6 | x2 | x8 | x6 | x2 | x6 | x2 | x6 | x2 | x8 | x8 :| x8 |] %33

